packages/ui-solid/icons/search_28.svg

<svg width="28" height="28" viewBox="0 0 28 28" fill="none" xmlns="http://www.w3.org/2000/svg">
<path fill-rule="evenodd" clip-rule="evenodd" d="M11.9046 4.95C8.06332 4.95 4.95 8.06262 4.95 11.9014C4.95 15.7402 8.06332 18.8528 11.9046 18.8528C13.8263 18.8528 15.5643 18.075 16.824 16.8151C18.0826 15.5562 18.8592 13.8203 18.8592 11.9014C18.8592 8.06262 15.7459 4.95 11.9046 4.95ZM3.05 11.9014C3.05 7.01255 7.0147 3.05 11.9046 3.05C16.7945 3.05 20.7592 7.01256 20.7592 11.9014C20.7592 14.0024 20.026 15.9336 18.8029 17.4512L24.6722 23.3287C25.043 23.7 25.0425 24.3015 24.6713 24.6722C24.3 25.043 23.6985 25.0425 23.3278 24.6713L17.4594 18.7947C15.9408 20.0189 14.0077 20.7528 11.9046 20.7528C7.0147 20.7528 3.05 16.7903 3.05 11.9014Z" fill="#007AFF"/>
</svg>

<svg xmlns="http://www.w3.org/2000/svg" width="28" height="28" fill="none"><path fill="currentColor" fill-rule="evenodd" d="M11.905 4.95a6.953 6.953 0 0 0-6.955 6.951 6.953 6.953 0 0 0 6.955 6.952 6.93 6.93 0 0 0 4.919-2.038 6.953 6.953 0 0 0-4.92-11.865M3.05 11.901c0-4.888 3.965-8.851 8.855-8.851s8.854 3.963 8.854 8.851a8.8 8.8 0 0 1-1.956 5.55l5.87 5.878a.95.95 0 1 1-1.345 1.342l-5.869-5.876a8.82 8.82 0 0 1-5.554 1.958c-4.89 0-8.855-3.963-8.855-8.852" clip-rule="evenodd"/></svg>
